X: 20382
T: John D. McGurk's
R: jig
M: 6/8
K: Dmajor
d2 e|:fde faa|gec ABc|dAd eaa|ged cde|
fde faa|gec ABc|dAd eaa|gec d2 e:|
K: AMaj
|:cea ece|dBG EGB|AEA Bee|cee Bee|
cea ece|dBG EGB|1 AEA Bee|dBG A2 B:|2 Ace Adf|egb a2 =g||

